<?xml version="1.0" encoding="UTF-8"?>
<map version="1.10" tiledversion="1.12.2" orientation="orthogonal" renderorder="right-down" width="28" height="10" tilewidth="60" tileheight="60" infinite="0" nextlayerid="6" nextobjectid="8">
 <tileset firstgid="1" source="fondo1.tsx"/>
 <tileset firstgid="51" source="obstaculos1.tsx"/>
 <tileset firstgid="115" source="obstaculos.tsx"/>
 <layer id="1" name="fondo" width="28" height="10">
  <data encoding="csv">
28,28,28,28,28,28,28,28,28,28,28,28,28,28,28,28,28,2147483659,6,6,6,6,6,6,6,11,28,28,
28,28,28,28,28,28,28,28,28,28,28,28,28,28,28,28,28,2147483659,6,6,5,5,5,6,6,11,28,28,
28,28,28,28,28,28,28,28,28,28,28,28,28,28,28,28,28,2147483659,6,6,5,5,5,5,6,11,28,28,
28,28,28,28,28,28,28,28,28,28,28,28,28,28,28,28,28,2147483659,6,6,5,6,6,6,6,11,28,28,
28,28,28,28,28,28,28,28,28,28,28,28,28,28,28,28,28,2147483659,6,6,6,6,6,6,6,11,28,28,
28,28,28,28,28,28,28,28,28,28,28,28,28,28,28,28,28,42,1073741846,1073741846,1073741846,1073741846,1073741846,1073741846,1073741846,2147483690,12,28,
28,28,28,28,28,28,1073741866,1073741827,1073741827,1073741827,1073741827,1073741827,1073741827,1073741827,1073741827,3221225514,28,28,28,28,28,28,28,12,12,12,12,12,
28,28,28,28,28,28,2147483659,6,6,6,5,5,5,5,6,11,28,28,28,28,28,28,28,12,28,28,28,12,
28,28,28,28,28,28,2147483659,6,5,5,5,5,5,5,5,11,28,28,28,28,28,28,28,12,28,28,28,12,
28,28,28,28,28,1073741866,2147483669,6,6,6,5,5,5,6,6,1073741825,3221225514,28,28,28,28,28,28,28,28,28,28,28
</data>
 </layer>
 <layer id="4" name="fondo2" width="28" height="10">
  <data encoding="csv">
0,0,0,0,0,0,0,0,2147483741,0,102,0,2147483750,0,102,0,2147483741,0,0,0,119,0,98,98,0,0,0,0,
0,0,0,0,0,0,0,0,0,2147483741,1073741926,0,0,0,102,0,2147483741,2147483741,0,0,118,0,106,106,0,2147483741,0,0,
0,0,0,0,0,0,0,0,0,0,102,0,0,0,0,0,0,0,2147483741,0,0,0,0,0,0,0,0,0,
0,0,0,0,93,93,0,0,2147483741,0,1073741926,0,102,0,0,0,0,0,2147483741,0,0,2147483741,0,0,0,2147483741,0,0,
100,0,0,0,119,0,0,0,0,0,0,0,0,0,0,0,0,0,2147483741,0,0,0,0,0,0,0,2147483741,0,
108,0,0,0,118,0,0,0,2147483741,0,0,0,0,0,0,0,0,0,0,0,2147483741,0,0,102,0,102,0,102,
0,0,2147483748,2147483747,0,0,0,2147483741,2147483741,2147483741,0,2147483741,0,2147483741,2147483741,0,0,0,0,2147483741,0,0,0,102,0,0,0,102,
0,0,2147483741,2147483755,0,0,0,0,0,0,0,0,0,0,0,0,0,0,2147483741,0,0,0,2147483741,102,0,0,0,102,
0,99,100,0,0,0,0,0,2147483767,0,0,0,119,0,0,0,99,100,119,0,0,0,0,102,102,102,51,102,
2147483741,93,93,0,0,0,0,0,2147483766,109,109,109,118,0,0,0,93,108,118,0,2147483741,0,0,0,0,0,0,119
</data>
 </layer>
 <layer id="5" name="fondo3" width="28" height="10">
  <data encoding="csv">
0,0,0,0,0,0,0,0,0,0,0,0,0,0,0,0,0,0,0,0,0,0,0,0,0,0,0,0,
0,0,0,0,0,0,0,0,0,0,102,0,0,0,1073741926,0,0,0,0,0,0,0,0,0,0,0,0,0,
0,0,0,0,0,0,0,0,0,0,1073741926,0,0,0,102,0,0,0,0,0,0,0,0,0,0,0,0,0,
0,0,0,0,0,0,0,0,0,0,0,0,0,0,1073741926,0,2147483741,0,0,0,0,0,0,0,0,0,0,0,
0,0,0,0,0,0,0,0,0,0,0,0,0,0,0,0,2147483741,0,0,0,0,0,0,0,0,0,0,0,
93,93,0,0,0,0,0,0,0,0,0,0,0,0,0,0,2147483741,0,0,0,0,0,0,1073741926,1073741926,1073741926,1073741926,1073741926,
0,0,0,0,0,0,0,0,0,0,0,0,0,0,0,0,0,2147483741,0,2147483741,0,0,0,1073741926,0,0,0,1073741926,
0,0,93,93,0,0,0,0,0,0,0,0,0,0,0,0,0,0,0,0,0,0,0,1073741926,0,0,0,1073741926,
0,0,0,0,0,0,0,0,0,99,100,0,0,2147483741,0,2147483741,0,0,0,0,0,0,0,1073741926,0,0,0,1073741926,
93,107,108,0,0,0,0,0,0,107,108,0,0,0,0,0,107,0,0,0,0,0,0,0,0,0,0,0
</data>
 </layer>
 <layer id="2" name="obstaculos" width="28" height="10">
  <data encoding="csv">
0,0,0,0,0,0,0,0,93,0,101,102,101,102,113,0,93,0,0,0,0,0,99,100,0,0,0,0,
0,0,0,0,0,0,0,93,0,93,113,0,0,0,113,0,93,93,115,0,93,0,107,108,0,93,0,0,
0,0,0,0,99,100,0,0,0,0,113,0,0,0,113,0,0,0,93,0,0,115,0,0,0,0,0,0,
0,0,0,0,107,108,0,0,93,0,101,102,0,2147483750,2147483749,0,93,0,93,0,0,93,0,0,0,93,0,0,
99,100,0,0,0,0,0,0,0,0,0,0,0,0,0,0,93,0,93,0,0,0,0,0,0,0,93,0,
107,108,0,0,93,0,0,0,93,0,0,0,0,0,93,0,93,0,0,0,93,0,0,101,102,101,102,113,
115,0,99,100,0,0,0,93,93,93,115,93,115,93,93,0,0,93,0,0,0,0,0,113,0,0,0,113,
0,115,107,108,0,0,115,0,0,0,0,0,0,0,115,0,0,0,93,0,0,0,93,113,0,0,0,113,
99,100,0,0,0,115,0,0,0,0,99,100,0,93,0,93,0,99,100,0,0,0,0,101,102,0,2147483750,2147483749,
107,108,0,0,0,0,0,0,0,0,107,108,0,0,0,0,0,107,108,0,93,0,0,0,0,0,0,93
</data>
 </layer>
 <objectgroup id="3" name="objetos">
  <object id="1" name="puerta_placa" x="753.333" y="204">
   <properties>
    <property name="id_puerta" type="int" value="1"/>
   </properties>
   <point/>
  </object>
  <object id="2" name="llave" x="740" y="134.667">
   <point/>
  </object>
  <object id="3" name="teleporte" x="692" y="92">
   <properties>
    <property name="id_teleporte" type="int" value="1"/>
   </properties>
   <point/>
  </object>
  <object id="4" name="portal" x="1529.33" y="393.333">
   <point/>
  </object>
  <object id="5" name="puerta_llave" x="1524" y="512">
   <point/>
  </object>
  <object id="6" name="teleporte" x="1589.33" y="212">
   <properties>
    <property name="id_teleporte" type="int" value="1"/>
   </properties>
   <point/>
  </object>
  <object id="7" name="placa" x="272" y="569.333">
   <properties>
    <property name="id_puerta" type="int" value="1"/>
   </properties>
   <point/>
  </object>
 </objectgroup>
</map>
