<?xml version="1.0" encoding="UTF-8"?>
<map version="1.10" tiledversion="1.12.2" orientation="orthogonal" renderorder="right-down" width="28" height="10" tilewidth="60" tileheight="60" infinite="0" nextlayerid="7" nextobjectid="10">
 <tileset firstgid="1" source="fondo1.tsx"/>
 <tileset firstgid="51" source="obstaculos1.tsx"/>
 <tileset firstgid="115" source="obstaculos.tsx"/>
 <layer id="1" name="fondo" width="28" height="10">
  <data encoding="csv">
28,28,28,28,28,28,28,28,28,28,28,28,28,28,28,28,28,2147483659,6,6,6,6,6,6,6,11,28,28,
28,28,28,28,28,28,28,28,28,28,28,28,28,28,28,28,28,2147483659,6,6,5,5,5,6,6,11,28,28,
28,28,28,28,28,28,28,28,28,28,28,28,28,28,28,28,28,2147483659,6,6,5,5,5,5,6,11,28,28,
28,28,28,28,28,28,28,28,28,28,28,28,28,28,28,28,28,2147483659,6,6,5,6,6,6,6,11,28,28,
28,28,28,28,28,28,28,28,28,28,28,28,28,28,28,28,28,2147483659,6,6,6,6,6,6,6,11,28,28,
28,28,28,28,28,28,28,28,28,28,28,28,28,28,28,28,28,42,1073741846,1073741846,1073741846,1073741846,1073741846,1073741846,1073741846,2147483690,12,28,
28,28,28,28,28,28,1073741866,1073741827,1073741827,1073741827,1073741827,1073741827,1073741827,1073741827,1073741827,3221225514,28,28,28,28,28,28,28,12,12,12,12,12,
28,28,28,28,28,28,2147483659,6,6,6,5,5,5,5,6,11,28,28,28,28,28,28,28,12,28,28,28,12,
28,28,28,28,28,28,2147483659,6,5,5,5,5,5,5,5,11,28,28,28,28,28,28,28,12,28,28,28,12,
28,28,28,28,28,1073741866,2147483669,6,6,6,5,5,5,6,6,1073741825,3221225514,28,28,28,28,28,28,28,28,28,28,28
</data>
 </layer>
 <layer id="4" name="fondo_decoracion" width="28" height="10">
  <data encoding="csv">
0,0,1073741930,0,0,0,0,0,0,0,0,0,0,0,0,0,0,0,0,93,93,93,2147483741,2147483741,0,0,0,0,
0,0,1073741922,0,0,0,0,0,0,0,0,0,0,0,0,0,0,0,0,1073741917,1073741917,1073741917,1073741917,1073741917,0,0,0,0,
0,0,0,0,0,0,0,0,0,0,0,0,0,0,0,0,0,0,0,93,93,2147483741,93,2147483741,0,0,0,0,
0,0,0,0,0,0,0,0,0,0,0,0,0,0,0,0,0,0,0,1073741917,1073741917,1073741917,1073741917,1073741917,0,0,0,0,
0,0,0,0,0,0,0,0,0,0,0,0,0,0,0,0,0,0,0,93,2147483741,93,2147483741,93,0,0,0,0,
0,0,0,0,0,0,0,0,0,0,0,0,0,0,0,0,0,0,0,0,0,0,0,0,0,0,0,0,
0,0,0,0,0,0,0,0,0,0,0,0,0,0,0,0,0,0,0,0,0,0,0,0,0,0,2147483750,0,
0,0,0,0,0,0,0,98,1073741917,1073741917,1073741917,1073741917,1073741917,1073741917,98,0,0,0,0,0,0,0,0,0,0,0,3221225574,0,
0,0,0,0,0,0,0,106,93,93,93,93,93,93,106,0,0,0,0,0,0,0,0,0,0,0,3221225574,0,
0,0,0,0,0,0,0,0,1073741917,1073741917,1073741917,1073741917,1073741917,1073741917,0,0,0,0,0,0,0,0,0,0,0,0,3221225574,0
</data>
 </layer>
 <layer id="5" name="fondo_decoracion1" width="28" height="10">
  <data encoding="csv">
0,0,0,0,0,0,0,0,0,0,0,0,0,0,0,0,0,0,0,107,108,107,108,107,0,0,0,0,
0,0,0,0,0,0,0,0,0,0,0,0,0,0,0,0,0,0,0,99,100,99,100,99,0,0,0,0,
0,0,0,0,0,0,0,0,0,0,0,0,0,0,0,0,0,0,0,107,108,107,108,107,0,0,0,0,
0,0,0,0,0,0,0,0,0,0,0,0,0,0,0,0,0,0,0,99,100,99,100,99,0,0,0,0,
0,0,0,0,0,0,0,0,0,0,0,0,0,0,0,0,0,0,0,107,108,107,108,107,0,0,0,0,
0,0,0,0,0,0,0,0,0,0,0,0,0,0,0,0,0,0,0,0,0,0,0,0,0,0,0,0,
0,0,0,0,0,0,0,0,0,0,0,0,0,0,0,0,0,0,0,0,0,0,0,0,0,0,102,0,
0,0,0,0,0,0,0,0,99,100,99,100,99,100,0,0,0,0,0,0,0,0,0,0,0,0,2147483750,0,
0,0,0,0,0,0,0,0,107,108,107,108,107,108,0,0,0,0,0,0,0,0,0,0,0,0,2147483750,0,
0,0,0,0,0,0,0,0,99,100,99,100,99,100,0,0,0,0,0,0,0,0,0,0,0,0,2147483750,0
</data>
 </layer>
 <layer id="6" name="fondo_decoracion2" width="28" height="10">
  <data encoding="csv">
0,0,0,0,0,0,0,0,0,0,0,0,0,0,0,0,0,0,0,0,0,0,0,0,0,0,0,0,
0,0,0,0,0,0,0,0,0,0,0,0,0,0,0,0,0,0,0,0,0,0,0,0,0,0,0,0,
0,0,0,0,0,0,0,0,0,0,0,0,0,0,0,0,0,0,0,0,0,0,0,0,0,0,0,0,
0,0,0,0,0,0,0,0,0,0,0,0,0,0,0,0,0,0,0,0,0,0,0,0,0,0,0,0,
0,0,0,0,0,0,0,0,0,0,0,0,0,0,0,0,0,0,0,0,0,0,0,0,108,0,0,0,
0,0,0,0,0,0,0,0,0,0,0,0,0,0,0,0,0,0,0,0,0,0,0,0,0,0,0,0,
0,0,0,0,0,0,0,0,0,0,0,0,0,0,0,0,0,0,0,0,0,0,0,0,0,0,0,0,
0,0,0,0,0,0,0,0,0,0,0,0,0,0,0,0,0,0,0,0,0,0,0,0,0,0,102,0,
0,0,0,0,0,0,0,0,0,0,0,0,0,0,0,0,0,0,0,0,0,0,0,0,0,0,102,0,
0,0,0,0,0,0,0,0,0,0,0,0,0,0,0,0,0,0,0,0,0,0,0,0,0,0,0,0
</data>
 </layer>
 <layer id="2" name="obstaculos" width="28" height="10">
  <data encoding="csv">
0,0,0,0,0,0,99,100,0,0,0,0,0,0,0,0,0,0,107,108,107,108,107,108,108,0,0,0,
0,0,0,0,0,93,107,108,0,0,0,0,0,0,93,0,0,0,99,100,99,100,99,100,100,0,0,0,
0,0,0,0,0,0,0,0,93,0,0,0,99,100,0,0,0,0,107,108,107,108,107,108,108,0,0,0,
0,0,0,0,0,0,0,0,0,0,0,93,107,108,0,0,0,0,99,100,99,100,99,100,100,0,0,0,
0,0,0,0,0,99,100,0,0,0,0,0,0,0,0,0,0,0,107,108,107,108,107,108,0,0,0,0,
0,0,0,0,0,107,108,93,0,0,0,0,0,0,0,0,0,0,0,0,0,0,0,0,0,0,0,0,
93,0,0,0,0,0,0,0,0,0,0,0,0,0,0,0,0,0,0,93,0,0,0,0,0,0,101,102,
0,99,100,0,0,0,0,99,100,99,100,99,100,99,100,0,0,0,99,100,93,0,0,0,0,0,0,0,
93,107,108,0,0,0,0,107,108,107,108,107,108,107,108,0,0,93,107,108,0,0,0,0,0,0,114,0,
0,0,93,0,0,0,0,99,100,99,100,99,100,99,100,0,0,0,0,0,0,0,0,0,0,0,101,102
</data>
 </layer>
 <objectgroup id="3" name="objetos">
  <object id="1" name="puerta_placa" x="1590.67" y="457.333" rotation="90">
   <properties>
    <property name="id_puerta" type="int" value="1"/>
   </properties>
   <point/>
  </object>
  <object id="3" name="teleporte" x="513.333" y="336">
   <properties>
    <property name="id_teleporte" type="int" value="1"/>
   </properties>
   <point/>
  </object>
  <object id="4" name="portal" x="1646.66" y="461.333">
   <point/>
  </object>
  <object id="6" name="teleporte" x="1653.33" y="45.3333">
   <properties>
    <property name="id_teleporte" type="int" value="1"/>
   </properties>
   <point/>
  </object>
  <object id="7" name="placa" x="267.295" y="566.665">
   <properties>
    <property name="id_puerta" type="int" value="1"/>
   </properties>
   <point/>
  </object>
  <object id="8" name="donacion" x="1652" y="269.333">
   <properties>
    <property name="tipo" value="comida"/>
   </properties>
   <point/>
  </object>
  <object id="9" name="objeto" x="1232" y="506.667">
   <properties>
    <property name="objeto" value="herramientas"/>
   </properties>
   <point/>
  </object>
 </objectgroup>
</map>
