<?xml version="1.0" encoding="UTF-8"?>
<map version="1.10" tiledversion="1.12.2" orientation="orthogonal" renderorder="right-down" width="28" height="10" tilewidth="60" tileheight="60" infinite="0" nextlayerid="8" nextobjectid="19">
 <tileset firstgid="1" source="obstaculos.tsx"/>
 <tileset firstgid="9" source="fondo1.tsx"/>
 <tileset firstgid="59" source="obstaculos1.tsx"/>
 <tileset firstgid="123" source="fondo3.tsx"/>
 <layer id="1" name="fondo" width="28" height="10">
  <data encoding="csv">
20,20,20,2147483667,13,14,13,14,13,13,13,13,13,13,13,13,13,13,13,13,14,14,14,14,13,13,9,2147483698,
20,20,20,50,2147483657,13,13,13,14,14,14,13,13,13,13,14,13,13,14,14,14,14,13,14,13,9,2147483698,20,
20,23,24,20,50,2147483657,13,13,13,14,13,13,13,14,13,14,13,13,13,13,14,14,13,13,13,19,20,20,
20,33,34,20,20,2147483667,13,14,13,13,13,14,13,13,14,14,13,13,14,13,13,13,13,13,9,2147483698,20,20,
20,20,20,20,20,50,2147483657,13,14,13,13,13,13,13,13,13,13,13,14,13,13,13,13,9,2147483698,23,24,20,
20,20,20,20,20,20,2147483667,13,13,13,13,13,13,13,13,13,13,14,13,13,13,13,9,2147483698,20,33,34,20,
20,20,20,20,2147483672,2147483671,50,2147483657,13,13,13,13,13,13,13,13,13,14,13,13,13,9,2147483698,20,20,20,20,20,
20,20,20,20,2147483682,2147483681,20,2147483682,1073741854,1073741854,1073741854,1073741854,1073741854,1073741854,1073741854,1073741854,1073741854,1073741854,1073741854,1073741854,1073741854,2147483698,20,20,20,20,20,20,
20,23,24,20,20,20,20,20,20,20,20,20,20,20,20,20,2147483672,2147483671,20,20,20,20,20,20,20,20,20,20,
20,33,34,20,20,20,20,20,20,20,20,20,20,20,20,20,2147483682,2147483681,20,20,20,20,20,20,20,20,20,20
</data>
 </layer>
 <layer id="7" name="fondo_decoracion0" width="28" height="10">
  <data encoding="csv">
0,0,0,0,0,0,0,0,0,0,0,0,0,0,0,0,0,0,0,0,0,0,0,0,0,0,0,0,
0,0,0,0,0,0,0,0,0,0,0,0,0,0,0,0,0,0,0,0,0,0,0,0,0,0,0,3221225573,
0,0,0,0,0,0,0,0,0,0,0,0,0,0,0,0,0,0,0,0,0,0,0,0,0,0,0,101,
0,0,0,101,2147483749,0,0,0,0,0,0,0,0,0,0,0,0,0,0,0,0,0,0,0,0,0,0,0,
0,0,0,0,0,0,0,0,0,0,0,0,0,0,0,0,0,0,0,0,0,0,0,0,0,0,0,0,
0,0,0,3221225573,3221225573,0,0,0,0,0,0,0,0,0,0,0,0,0,0,0,0,0,0,0,0,0,0,0,
0,0,0,101,0,0,0,0,0,0,0,0,0,0,0,0,0,0,0,0,0,0,0,0,0,0,0,3221225573,
0,0,3221225573,0,0,0,0,3221225573,0,0,0,0,0,0,0,0,0,3221225573,3221225573,0,0,0,0,0,3221225573,3221225573,0,101,
3221225573,0,2147483749,0,0,0,101,2147483749,0,1073741925,3221225573,3221225573,3221225573,3221225573,0,0,0,101,101,0,0,0,0,0,101,0,0,3221225573,
2147483749,0,0,0,0,0,0,0,0,0,101,101,2147483749,101,0,0,0,0,0,0,0,0,0,0,0,0,101,0
</data>
 </layer>
 <layer id="6" name="fondo_decoracion1" width="28" height="10">
  <data encoding="csv">
0,0,0,0,0,0,0,0,0,0,0,0,0,0,0,0,0,0,0,0,0,0,0,0,0,0,0,0,
0,0,0,0,0,0,0,0,0,0,0,0,0,0,0,0,0,0,0,0,0,0,0,0,0,0,0,0,
0,0,0,0,0,0,0,0,0,0,0,0,0,0,0,0,0,0,0,0,0,2147483758,0,2147483758,2147483758,0,0,0,
0,0,0,0,0,0,0,0,0,0,0,0,0,0,0,0,0,0,0,0,0,0,0,0,0,0,0,0,
0,0,0,0,0,0,0,0,0,0,0,0,0,0,0,0,0,0,0,0,0,0,0,0,0,0,0,0,
0,0,0,0,0,0,0,0,0,0,0,0,0,0,0,0,0,0,0,0,0,0,0,0,0,0,0,0,
0,0,0,0,0,0,0,0,0,0,0,0,0,0,0,0,0,0,0,0,0,0,0,0,0,0,0,0,
0,0,0,0,0,0,0,0,0,0,0,0,0,0,0,0,0,0,0,0,0,0,0,0,0,107,108,0,
0,0,0,0,0,0,0,0,0,0,0,107,108,0,0,0,0,0,0,0,0,0,0,0,0,115,116,0,
0,0,0,0,0,0,0,0,0,0,0,115,116,0,0,0,0,0,0,0,0,0,0,0,0,0,0,0
</data>
 </layer>
 <layer id="5" name="fondo_decoracion2" width="28" height="10">
  <data encoding="csv">
0,0,0,0,0,0,3758096498,3758096490,0,0,0,0,0,0,0,0,0,0,0,0,0,0,0,0,0,0,0,0,
0,0,0,0,0,0,0,0,0,0,0,0,0,0,0,0,0,0,0,0,0,0,0,0,0,0,0,107,
0,0,0,0,0,0,0,0,0,0,0,0,0,0,0,0,0,0,0,0,0,3221225582,3221225581,110,1073741933,1073741934,0,115,
0,0,0,0,0,0,0,0,0,0,0,0,0,0,0,0,0,0,0,0,0,0,0,0,0,0,0,0,
0,0,0,0,0,0,0,0,0,0,0,0,0,0,0,0,0,0,0,0,0,0,0,0,0,0,0,0,
0,0,107,108,0,0,0,0,0,0,0,0,0,0,0,0,0,0,0,0,0,0,0,0,0,0,0,0,
0,0,115,116,0,0,0,0,0,0,0,0,0,0,0,0,0,0,0,0,0,0,0,0,0,0,0,107,
0,0,107,108,0,0,0,0,0,0,0,0,0,0,0,0,0,107,108,0,0,0,0,0,107,108,0,115,
0,0,115,116,0,0,0,0,0,0,107,108,107,108,0,0,0,115,116,0,0,0,0,0,115,116,107,108,
0,0,0,0,0,0,0,0,0,0,115,116,115,116,0,0,0,0,0,0,0,0,0,0,0,0,115,116
</data>
 </layer>
 <layer id="2" name="obstaculos" width="28" height="10">
  <data encoding="csv">
0,0,0,0,0,3758096498,3758096490,3758096498,3758096490,0,0,0,2147483653,0,0,0,0,0,0,0,0,2147483754,0,0,0,106,0,0,
0,0,0,0,0,0,0,0,0,0,0,0,2147483652,0,0,0,0,5,0,5,0,2147483762,0,0,0,114,107,108,
0,0,0,107,108,0,0,0,0,0,0,0,0,0,0,0,0,4,0,4,0,109,110,0,109,110,115,116,
0,0,0,115,116,0,0,0,0,0,0,0,0,0,0,0,0,0,0,0,0,0,0,0,0,0,0,0,
0,0,0,0,0,0,0,0,0,0,0,0,0,0,0,0,0,0,0,0,0,0,0,0,0,0,0,5,
0,0,107,107,108,0,0,0,0,0,0,0,0,0,0,0,0,0,0,0,0,0,0,0,0,0,0,4,
0,0,115,115,116,0,0,0,0,0,0,0,0,0,0,0,0,0,0,0,0,0,0,0,0,0,107,108,
0,107,108,108,0,0,107,108,0,0,0,0,0,0,0,0,107,108,107,108,0,0,0,107,108,0,115,116,
108,115,116,107,108,0,115,116,0,107,108,0,0,107,108,0,115,116,115,116,0,0,0,115,116,107,108,0,
116,2147483653,5,115,116,0,0,0,0,115,116,0,0,115,116,0,0,0,0,0,0,0,0,0,0,115,116,0
</data>
 </layer>
 <objectgroup id="4" name="objetos">
  <object id="5" name="puerta_llave" x="1392" y="156" rotation="90">
   <point/>
  </object>
  <object id="7" name="llave" x="629.997" y="460.667">
   <point/>
  </object>
  <object id="8" name="teleporte" x="1469.33" y="577.333">
   <properties>
    <property name="id_teleporte" type="int" value="1"/>
   </properties>
   <point/>
  </object>
  <object id="10" name="teleporte" x="31.3333" y="460">
   <properties>
    <property name="id_teleporte" type="int" value="1"/>
   </properties>
   <point/>
  </object>
  <object id="11" name="portal" x="1407.99" y="41.333">
   <point/>
  </object>
  <object id="13" name="caja" x="630.667" y="220">
   <point/>
  </object>
  <object id="14" name="caja" x="1525.33" y="345.333">
   <point/>
  </object>
  <object id="15" name="donacion" x="932" y="230">
   <properties>
    <property name="tipo" value="comida"/>
   </properties>
   <point/>
  </object>
  <object id="16" name="donacion" x="1348.67" y="343.333">
   <properties>
    <property name="tipo" value="sillas"/>
   </properties>
   <point/>
  </object>
  <object id="18" name="donacion" x="686.667" y="462.667">
   <properties>
    <property name="tipo" value="libros"/>
   </properties>
   <point/>
  </object>
 </objectgroup>
</map>
