<?xml version="1.0" encoding="UTF-8"?>
<map version="1.10" tiledversion="1.12.2" orientation="orthogonal" renderorder="right-down" width="28" height="10" tilewidth="60" tileheight="60" infinite="0" nextlayerid="7" nextobjectid="13">
 <tileset firstgid="1" source="obstaculos.tsx"/>
 <tileset firstgid="9" source="fondo1.tsx"/>
 <tileset firstgid="59" source="obstaculos1.tsx"/>
 <tileset firstgid="123" source="fondo3.tsx"/>
 <layer id="1" name="fondo" width="28" height="10">
  <data encoding="csv">
20,20,20,20,20,20,20,20,20,20,20,20,20,20,20,20,20,20,20,20,20,20,20,20,20,20,20,20,
30,3221225522,23,24,20,20,20,20,20,20,20,20,20,20,20,20,20,20,20,20,20,20,20,20,20,20,20,20,
14,19,33,34,23,24,20,20,20,20,20,20,20,20,20,20,20,20,20,20,20,20,20,20,20,20,20,20,
13,29,3221225522,20,33,34,23,24,20,20,20,20,20,20,20,20,20,20,20,20,20,20,20,20,20,20,20,20,
13,13,29,30,3221225522,20,33,34,20,20,20,20,20,20,20,20,20,20,20,20,20,20,20,20,20,20,20,20,
14,13,13,13,29,30,3221225522,23,24,20,20,20,20,20,20,20,3221225506,3221225505,20,20,1073741857,1073741858,20,20,20,20,20,20,
14,13,14,13,13,13,19,33,34,20,20,20,20,20,20,20,3221225496,3221225495,20,20,1073741847,1073741848,20,20,20,20,20,20,
13,14,13,14,14,13,29,30,30,30,30,1073741863,55,56,57,55,30,30,30,30,3221225522,20,20,20,20,20,20,20,
13,13,13,14,14,14,13,14,13,13,13,13,13,14,14,13,13,13,13,13,19,3221225506,3221225505,20,20,20,20,20,
13,14,13,14,14,14,13,14,13,14,13,13,14,13,13,13,14,13,13,13,19,3221225496,3221225495,20,20,20,20,20
</data>
 </layer>
 <layer id="5" name="fondo2" width="28" height="10">
  <data encoding="csv">
0,0,0,0,0,0,0,0,106,106,0,0,0,106,106,0,0,0,0,108,0,0,0,106,0,0,0,0,
0,0,0,0,0,0,0,0,114,114,0,0,0,114,114,0,0,101,101,101,0,0,0,114,2147483769,122,121,0,
0,0,0,0,107,0,0,0,106,106,0,0,0,106,106,0,0,0,0,0,0,0,0,0,0,0,0,0,
101,0,0,0,101,101,0,0,114,2147483769,121,122,2147483769,121,114,0,0,108,0,0,101,101,0,0,0,0,0,0,
108,107,0,0,0,0,0,0,0,0,0,0,0,0,0,101,101,101,0,0,0,0,0,0,0,0,0,0,
116,115,101,0,0,0,0,0,0,0,0,0,0,0,0,0,0,0,0,101,101,0,0,101,101,101,101,101,
108,107,108,107,0,0,0,0,0,0,0,0,101,101,0,0,0,0,0,0,0,0,0,0,0,0,0,0,
116,115,116,115,101,0,0,0,0,0,0,0,0,0,0,0,0,0,0,0,0,0,0,101,101,101,101,101,
108,107,108,107,108,107,0,107,108,107,108,107,108,107,108,107,108,107,108,0,0,0,0,0,0,0,0,0,
116,115,116,115,116,101,101,101,101,115,116,115,116,115,116,115,116,115,116,0,0,101,101,0,0,0,0,0
</data>
 </layer>
 <layer id="6" name="fondo3" width="28" height="10">
  <data encoding="csv">
0,0,0,0,0,0,0,0,0,0,0,0,0,0,0,0,0,0,107,0,0,0,0,0,0,0,0,0,
0,0,0,0,0,0,0,0,107,108,0,0,0,107,108,0,0,0,115,116,0,0,0,0,2147483770,2147483770,122,0,
108,0,0,0,0,108,0,0,115,116,0,0,0,115,116,0,0,0,0,0,0,0,0,0,0,0,0,0,
116,101,0,0,115,116,101,0,0,114,2147483769,2147483770,121,114,0,0,107,0,0,0,0,0,0,0,0,0,0,0,
0,0,108,0,0,0,0,0,0,0,0,0,0,0,0,0,115,116,0,0,0,0,0,107,108,107,108,107,
0,0,116,0,0,0,0,0,0,0,0,0,0,0,0,0,0,0,0,0,0,0,0,115,116,115,116,115,
0,0,0,0,108,0,0,0,0,0,0,0,0,0,0,0,0,0,0,0,0,0,0,107,108,107,108,107,
0,0,0,0,116,0,0,0,0,0,0,0,0,0,0,0,0,0,0,0,0,0,0,115,116,115,116,115,
0,0,0,0,0,0,108,0,0,0,0,0,0,0,0,0,0,0,0,0,0,0,0,0,0,0,0,0,
0,0,0,0,0,115,116,115,116,0,0,0,0,0,0,0,0,0,0,0,0,0,0,0,0,0,0,0
</data>
 </layer>
 <layer id="2" name="obstaculos" width="28" height="10">
  <data encoding="csv">
0,0,0,0,0,0,0,0,107,108,0,0,0,107,108,0,0,107,108,0,0,0,0,0,0,0,0,2147483754,
0,0,0,101,0,0,0,0,115,116,0,0,0,115,116,0,101,115,116,0,0,0,0,0,0,0,0,2147483762,
107,108,0,0,0,107,108,0,107,108,0,0,0,107,108,0,0,0,0,0,107,108,0,0,0,0,0,0,
115,116,0,0,0,115,116,0,115,116,0,0,0,115,116,107,108,0,0,101,115,116,0,0,0,0,0,0,
107,108,107,108,0,0,101,0,0,0,0,0,0,0,0,115,116,0,0,107,108,0,0,0,107,108,107,108,
115,116,115,116,0,101,0,0,107,108,0,0,107,108,0,0,0,0,0,115,116,0,0,115,115,116,115,116,
107,108,107,108,107,108,0,0,115,116,0,0,115,116,0,101,0,101,0,0,0,0,0,107,107,108,107,108,
115,116,115,116,115,116,0,0,0,0,0,0,0,0,0,0,0,0,0,0,0,0,0,115,115,116,115,116,
107,108,107,108,107,108,107,108,107,108,107,108,107,108,107,108,107,108,107,108,0,107,108,0,0,0,0,0,
115,116,115,116,115,116,115,116,115,116,115,116,115,116,115,116,115,116,115,116,101,115,116,0,0,0,0,0
</data>
 </layer>
 <objectgroup id="4" name="objetos">
  <object id="5" name="puerta_llave" x="1530.67" y="104">
   <point/>
  </object>
  <object id="6" name="puerta_placa" x="696" y="229.333">
   <properties>
    <property name="id_puerta" type="int" value="1"/>
   </properties>
   <point/>
  </object>
  <object id="7" name="llave" x="628.667" y="106">
   <point/>
  </object>
  <object id="8" name="teleporte" x="749.333" y="48">
   <properties>
    <property name="id_teleporte" type="int" value="1"/>
   </properties>
   <point/>
  </object>
  <object id="10" name="teleporte" x="932.667" y="49.3333">
   <properties>
    <property name="id_teleporte" type="int" value="1"/>
   </properties>
   <point/>
  </object>
  <object id="11" name="portal" x="1532" y="48">
   <point/>
  </object>
  <object id="12" name="placa" x="391.997" y="461.333">
   <properties>
    <property name="id_puerta" type="int" value="1"/>
   </properties>
   <point/>
  </object>
 </objectgroup>
</map>
