<?xml version="1.0" encoding="UTF-8"?>
<map version="1.10" tiledversion="1.12.2" orientation="orthogonal" renderorder="right-down" width="28" height="10" tilewidth="60" tileheight="60" infinite="0" nextlayerid="7" nextobjectid="10">
 <tileset firstgid="1" source="fondo1.tsx"/>
 <tileset firstgid="51" source="obstaculos1.tsx"/>
 <tileset firstgid="115" source="obstaculos.tsx"/>
 <layer id="1" name="fondo" width="28" height="10">
  <data encoding="csv">
12,12,12,2147483659,6,6,6,6,11,12,1073741866,22,22,22,22,22,3221225514,12,1073741866,1073741826,1073741826,1073741826,1073741826,1073741826,3221225514,12,12,12,
12,12,12,2147483659,6,6,6,6,11,12,2147483659,6,6,6,6,6,11,12,2147483659,5,6,6,6,6,11,12,12,12,
12,12,12,42,1073741846,1073741846,1073741846,1073741846,2147483690,12,2147483659,6,6,6,6,6,11,12,42,2147483659,6,6,6,6,11,12,12,12,
12,12,12,12,12,12,12,12,12,12,2147483659,6,6,6,6,6,11,12,12,2147483659,6,6,6,6,11,12,12,12,
12,1073741866,22,22,22,22,22,22,22,3221225514,42,1073741846,1073741846,1073741846,1073741846,1073741846,2147483690,12,12,42,2,2,2,2,2147483690,12,12,12,
12,2147483659,6,6,6,6,6,6,6,11,12,12,12,1073741866,22,22,22,22,22,3221225514,12,12,12,12,12,12,12,12,
12,2147483659,6,5,6,6,6,6,6,11,12,12,12,2147483659,6,6,6,6,6,11,1073741866,1073741826,1073741826,1073741826,1073741826,1073741826,3221225514,12,
12,2147483659,6,6,6,6,6,6,6,11,12,12,12,2147483659,6,6,6,6,6,11,12,6,6,6,6,6,12,12,
12,2147483659,6,6,6,6,6,6,6,11,12,12,12,42,1073741846,1073741846,1073741846,1073741846,1073741846,2147483690,12,6,5,6,6,6,12,12,
12,42,1073741846,1073741846,1073741846,1073741846,1073741846,1073741846,1073741846,27,12,12,12,12,12,12,12,12,12,12,12,6,6,6,6,6,12,12
</data>
 </layer>
 <layer id="4" name="fondo_decoracion" width="28" height="10">
  <data encoding="csv">
0,0,0,0,0,0,0,0,0,0,0,0,0,0,0,0,0,0,0,0,0,0,0,0,0,0,0,0,
0,0,0,0,0,0,0,0,0,0,0,0,0,0,0,0,0,0,0,0,0,0,0,0,0,0,0,0,
0,0,0,0,0,0,0,0,0,0,0,0,0,0,0,0,0,0,0,0,0,0,0,0,0,0,0,0,
0,0,0,0,0,0,0,0,0,0,0,0,0,0,0,0,0,0,0,0,0,0,0,0,0,0,0,0,
0,0,0,0,0,0,0,0,0,0,0,0,0,0,0,0,0,0,0,0,0,0,0,0,0,0,0,0,
0,0,0,0,0,0,0,0,0,0,0,0,0,0,0,0,0,0,0,0,0,0,0,2147483750,0,0,0,0,
0,0,0,0,0,0,0,0,0,0,0,0,0,0,0,0,0,0,0,0,0,3221225574,0,0,0,3221225574,0,0,
0,0,0,0,0,0,0,0,0,0,0,0,0,0,0,0,0,0,0,0,0,3221225574,0,0,0,3221225574,0,0,
0,0,0,0,0,0,0,0,0,0,0,0,0,0,0,0,0,0,0,0,0,3221225574,0,0,0,3221225574,0,0,
0,0,0,0,0,0,0,0,0,0,0,0,0,0,0,0,0,0,0,0,0,0,0,0,0,0,0,0
</data>
 </layer>
 <layer id="5" name="fondo_decoracion1" width="28" height="10">
  <data encoding="csv">
0,0,0,0,0,0,0,0,0,0,0,0,0,0,0,0,0,0,0,0,0,0,0,0,0,0,0,0,
0,0,0,0,0,0,0,0,0,0,0,0,0,0,0,0,0,0,0,0,0,0,0,0,0,0,0,0,
0,0,0,0,0,102,102,102,0,0,0,0,0,0,0,0,0,0,0,0,0,0,0,0,0,0,0,0,
0,0,0,0,0,0,0,0,0,0,0,0,0,0,0,0,0,0,0,0,0,0,0,0,0,0,0,0,
0,0,0,0,0,0,0,0,0,0,0,0,0,0,0,0,0,0,0,0,0,0,0,0,0,0,0,0,
0,0,0,0,0,0,0,0,0,0,0,0,0,0,0,0,0,0,0,0,0,0,0,102,0,0,0,0,
0,0,0,0,0,0,0,0,0,0,0,0,0,0,0,0,0,0,0,0,0,2147483750,0,0,0,2147483750,0,0,
0,0,0,0,0,0,0,0,0,0,0,0,0,0,0,0,0,0,0,0,0,2147483750,0,0,0,2147483750,0,0,
0,0,0,0,0,0,0,0,0,0,0,0,0,0,0,0,0,0,0,0,0,2147483750,2147483750,2147483750,2147483750,2147483750,0,0,
0,0,0,0,0,0,0,0,0,0,0,0,0,0,0,0,0,0,0,0,0,0,0,0,0,0,0,0
</data>
 </layer>
 <layer id="6" name="fondo_decoracion2" width="28" height="10">
  <data encoding="csv">
0,0,0,0,0,0,0,0,0,0,0,0,0,0,0,0,0,0,0,0,0,0,0,0,0,0,0,0,
0,0,0,0,0,0,0,0,0,0,0,0,0,0,0,0,0,0,0,0,0,0,0,0,0,0,0,0,
0,0,0,102,2147483750,2147483750,2147483750,2147483750,2147483750,0,0,0,0,0,0,0,0,0,0,0,0,0,0,0,0,0,0,0,
0,0,0,0,0,0,0,0,0,0,0,0,0,0,0,0,0,0,0,0,0,0,0,0,0,0,0,0,
0,0,0,0,0,0,0,0,0,0,0,0,0,0,0,0,0,0,0,0,0,0,0,0,0,0,0,0,
0,0,0,0,0,0,0,0,0,0,0,0,0,0,0,0,0,0,0,0,0,0,102,0,2147483750,0,0,0,
0,0,0,0,0,0,0,0,0,0,0,0,0,0,0,0,0,0,0,0,0,102,0,0,0,102,0,0,
0,0,0,0,0,0,0,0,0,0,0,0,0,0,0,0,0,0,0,0,0,102,0,0,0,102,0,0,
0,0,0,0,0,0,0,0,0,0,0,0,0,0,0,0,0,0,0,0,0,102,102,102,102,102,0,0,
0,0,0,0,0,0,0,0,0,0,0,0,0,0,0,0,0,0,0,0,0,0,0,0,0,0,0,0
</data>
 </layer>
 <layer id="2" name="obstaculos" width="28" height="10">
  <data encoding="csv">
0,0,0,2147483746,0,0,0,0,98,0,115,0,0,0,0,0,0,0,0,0,0,0,115,115,0,99,100,0,
0,0,0,2147483754,0,0,0,0,106,99,100,0,0,0,120,0,115,0,0,0,99,100,0,0,115,107,108,0,
0,0,0,2147483750,102,0,101,102,102,107,108,115,99,100,0,120,0,115,99,100,107,108,99,100,0,0,115,0,
115,0,0,0,0,0,0,0,0,120,0,0,107,108,0,0,120,115,107,108,0,0,107,108,99,100,0,120,
0,120,0,0,0,0,0,0,0,0,0,0,0,0,115,115,0,0,115,0,0,0,0,120,107,108,120,0,
115,120,0,0,0,115,0,0,0,0,0,0,0,0,0,0,0,0,0,0,0,2147483750,2147483749,101,101,102,120,0,
0,0,0,115,0,120,0,0,0,120,120,99,100,0,0,0,0,120,0,120,0,101,0,0,0,101,0,0,
120,0,0,99,100,0,0,0,0,0,0,107,108,0,0,0,0,0,120,0,0,101,0,0,0,101,0,0,
99,100,0,107,108,115,0,0,0,99,100,109,0,0,0,0,0,0,0,0,0,101,101,0,101,101,0,115,
107,108,0,115,0,0,0,120,0,107,108,0,0,0,0,120,0,0,0,0,0,0,0,0,0,0,0,0
</data>
 </layer>
 <objectgroup id="3" name="objetos">
  <object id="1" name="puerta_llave" x="1409.33" y="506.667">
   <point/>
  </object>
  <object id="2" name="portal" x="1405.33" y="390.667">
   <point/>
  </object>
  <object id="3" name="teleporte" x="389.333" y="30.6667">
   <properties>
    <property name="id_teleporte" type="int" value="1"/>
   </properties>
   <point/>
  </object>
  <object id="4" name="llave" x="333.333" y="36">
   <point/>
  </object>
  <object id="5" name="puerta_placa" x="328" y="156">
   <properties>
    <property name="id_puerta" type="int" value="1"/>
   </properties>
   <point/>
  </object>
  <object id="6" name="placa" x="388" y="510.667">
   <properties>
    <property name="id_puerta" type="int" value="1"/>
   </properties>
   <point/>
  </object>
  <object id="7" name="teleporte" x="1649.33" y="280">
   <properties>
    <property name="id_teleporte" type="int" value="1"/>
   </properties>
   <point/>
  </object>
  <object id="8" name="donacion" x="1650" y="444">
   <properties>
    <property name="tipo" value="juguetes"/>
   </properties>
   <point/>
  </object>
  <object id="9" name="objeto" x="1584" y="570">
   <properties>
    <property name="objeto" value="mochila"/>
   </properties>
   <point/>
  </object>
 </objectgroup>
</map>
