<?xml version="1.0" encoding="UTF-8"?>
<map version="1.10" tiledversion="1.12.2" orientation="orthogonal" renderorder="right-down" width="28" height="10" tilewidth="60" tileheight="60" infinite="0" nextlayerid="7" nextobjectid="11">
 <tileset firstgid="1" source="fondo1.tsx"/>
 <tileset firstgid="51" source="fondo2.tsx"/>
 <tileset firstgid="106" source="obstaculos1.tsx"/>
 <tileset firstgid="170" source="obstaculos.tsx"/>
 <layer id="1" name="fondo" width="28" height="10">
  <data encoding="csv">
12,12,12,12,12,12,12,12,12,12,12,12,12,12,12,12,12,12,12,88,3221225524,1073741876,1073741876,3221225524,1073741876,1073741876,2147483736,12,
12,12,12,12,12,12,12,12,12,12,12,12,12,12,12,12,12,12,12,2147483710,56,56,56,56,56,56,62,12,
12,12,88,3221225524,3221225524,3221225524,3221225524,3221225524,3221225524,3221225524,2147483736,12,12,12,12,12,12,12,12,2147483710,56,56,56,56,56,56,62,12,
12,12,2147483710,56,56,56,56,56,56,56,62,12,12,12,12,12,12,12,12,2147483710,56,56,56,56,56,56,62,12,
12,12,2147483710,56,56,56,56,56,56,56,62,12,88,3221225524,3221225524,3221225524,3221225524,3221225524,3221225524,2147483736,2147483700,2147483700,52,2147483700,52,52,3221225560,12,
12,12,2147483710,56,56,56,56,56,56,56,62,12,2147483710,56,56,56,56,56,56,62,12,88,3221225524,1073741876,3221225524,1073741876,1073741876,2147483736,
12,12,2147483710,56,56,56,56,56,56,56,62,12,2147483710,56,56,56,56,56,56,62,12,2147483710,56,56,56,56,56,62,
12,12,2147483710,56,56,56,56,56,56,56,62,12,2147483710,56,56,56,56,56,56,62,12,2147483710,56,56,56,56,56,62,
12,12,1073741912,2147483700,52,2147483700,52,2147483700,52,2147483700,3221225560,12,2147483710,56,56,56,56,56,56,62,12,2147483710,56,56,56,56,56,62,
12,12,12,12,12,12,12,12,12,12,12,12,1073741912,52,52,52,52,52,52,3221225560,12,12,2147483700,52,2147483700,2147483700,52,12
</data>
 </layer>
 <layer id="4" name="fondo_decoracion" width="28" height="10">
  <data encoding="csv">
0,0,0,0,0,0,0,0,0,0,0,0,0,0,0,0,0,0,0,0,0,0,3221225629,3221225629,3221225629,3221225629,3221225629,0,
0,0,0,0,0,0,0,0,0,0,0,0,0,0,0,0,0,0,0,0,0,0,3221225629,0,0,0,3221225629,0,
0,0,0,0,0,0,0,0,0,0,0,0,0,0,0,0,0,0,0,0,0,0,3221225629,0,0,0,3221225629,0,
0,0,0,0,0,0,0,0,0,0,0,0,0,0,0,0,0,0,0,0,0,0,3221225629,3221225629,0,3221225629,3221225629,0,
148,148,0,0,0,0,0,0,0,0,0,0,0,0,0,0,0,0,0,0,0,0,0,0,0,0,0,0,
0,0,0,0,0,0,0,0,0,0,0,0,0,0,0,0,0,0,0,0,0,0,0,0,0,0,0,0,
2147483796,0,0,0,0,0,0,0,0,0,0,0,0,0,0,0,0,0,0,0,0,0,0,0,0,0,0,0,
3221225629,3221225629,3221225629,3221225629,3221225629,0,0,0,0,0,0,0,0,0,0,0,0,0,0,0,0,0,0,0,0,0,0,0,
3221225629,0,0,0,3221225629,0,0,0,0,0,0,0,0,0,0,0,0,0,0,0,0,0,0,0,0,0,0,0,
3221225629,0,0,0,3221225629,0,0,0,0,0,0,0,0,0,0,0,0,0,0,0,0,0,0,0,0,0,0,0
</data>
 </layer>
 <layer id="5" name="fondo_decoracion1" width="28" height="10">
  <data encoding="csv">
0,0,0,0,0,0,0,0,0,0,0,0,0,0,0,0,0,0,0,0,0,0,2147483805,2147483805,2147483805,2147483805,2147483805,0,
0,0,0,0,0,0,0,0,0,0,0,0,0,0,0,0,0,0,0,0,0,0,2147483805,0,0,0,2147483805,0,
0,0,0,0,0,0,0,0,0,0,0,0,0,0,0,0,0,0,0,0,0,0,2147483805,0,0,0,2147483805,0,
155,0,0,0,0,0,0,0,0,0,0,0,0,0,0,0,0,0,0,0,0,0,2147483805,2147483805,2147483805,2147483805,0,0,
163,0,0,0,0,0,0,0,0,0,0,0,0,0,0,0,0,0,0,0,0,0,0,0,0,0,0,0,
0,0,0,0,0,0,0,0,0,0,0,0,0,0,0,0,0,0,0,0,0,0,0,0,0,0,0,0,
0,0,0,0,0,0,0,0,0,0,0,0,0,0,0,0,0,0,0,0,0,0,0,0,0,0,0,0,
2147483805,2147483805,2147483805,2147483805,2147483805,0,0,0,0,0,0,0,0,0,0,0,0,0,0,0,0,0,0,0,0,0,0,0,
2147483805,0,0,0,2147483805,0,0,0,0,0,0,0,0,0,0,0,0,0,0,0,0,0,0,0,0,0,0,0,
2147483805,0,0,0,2147483805,0,0,0,0,0,0,0,0,0,0,0,0,0,0,0,0,0,0,0,0,0,0,0
</data>
 </layer>
 <layer id="6" name="fondo_decoracion2" width="28" height="10">
  <data encoding="csv">
0,0,0,0,0,0,0,0,0,0,0,0,0,0,0,0,0,0,0,0,0,0,157,157,157,157,157,0,
0,0,0,0,0,0,0,0,0,0,0,0,0,0,0,0,0,0,0,0,0,0,157,0,0,0,157,0,
0,0,0,0,0,0,0,0,0,0,0,0,0,0,0,0,0,0,0,0,0,0,157,0,0,0,157,0,
154,155,0,0,0,0,0,0,0,0,0,0,0,0,0,0,0,0,0,0,0,0,157,157,157,157,157,0,
162,163,0,0,0,0,0,0,0,0,0,0,0,0,0,0,0,0,0,0,0,0,0,0,0,0,0,0,
155,0,0,0,0,0,0,0,0,0,0,0,0,0,0,0,0,0,0,0,0,0,0,0,0,0,0,0,
163,0,0,0,0,0,0,0,0,0,0,0,0,0,0,0,0,0,0,0,0,0,0,0,0,0,0,0,
157,157,157,157,157,0,0,0,0,0,0,0,0,0,0,0,0,0,0,0,0,0,0,0,0,0,0,0,
157,0,0,0,157,0,0,0,0,0,0,0,0,0,0,0,0,0,0,0,0,0,0,0,0,0,0,0,
157,0,0,0,157,0,0,0,0,0,0,0,0,0,0,0,0,0,0,0,0,0,0,0,0,0,0,0
</data>
 </layer>
 <layer id="2" name="obstaculos" width="28" height="10">
  <data encoding="csv">
0,0,0,154,155,148,148,154,155,0,0,148,0,148,0,154,155,0,0,0,0,0,168,169,168,169,168,0,
0,0,0,162,163,0,148,162,163,0,148,0,0,154,155,162,163,0,176,176,0,0,168,0,0,0,168,0,
148,0,0,0,0,0,0,0,0,0,0,176,176,162,163,176,0,0,154,155,0,0,168,0,0,0,168,0,
0,154,155,0,0,0,0,0,0,0,0,0,0,64,64,148,0,0,162,163,0,0,168,156,0,156,168,0,
0,162,163,0,0,0,0,0,176,176,0,0,0,0,0,0,176,0,0,0,0,0,0,176,0,0,0,0,
154,155,0,0,0,0,0,0,0,0,0,0,177,0,0,176,176,177,0,0,148,0,0,0,0,0,0,0,
162,163,0,0,0,0,0,0,0,0,177,0,0,0,0,0,0,0,0,0,0,0,0,0,0,176,0,0,
156,157,156,157,156,0,0,0,0,0,0,177,0,176,176,0,0,176,0,0,177,0,0,176,0,0,0,0,
156,0,0,0,156,0,0,0,0,0,154,155,0,0,0,0,0,176,176,0,0,0,0,0,0,0,0,0,
156,0,0,0,0,0,0,148,0,0,162,163,0,0,0,0,0,0,0,0,148,0,0,0,0,0,0,148
</data>
 </layer>
 <objectgroup id="3" name="objetos">
  <object id="1" name="puerta_llave" x="1470" y="214">
   <point/>
  </object>
  <object id="2" name="portal" x="1480" y="96">
   <point/>
  </object>
  <object id="3" name="placa" x="512" y="574">
   <properties>
    <property name="id_puerta" type="int" value="1"/>
   </properties>
   <point/>
  </object>
  <object id="4" name="puerta_placa" x="268" y="572" rotation="-90">
   <properties>
    <property name="id_puerta" type="int" value="1"/>
   </properties>
   <point/>
  </object>
  <object id="5" name="llave" x="214" y="514">
   <point/>
  </object>
  <object id="6" name="teleporte" x="90" y="578">
   <properties>
    <property name="id_teleporte" type="int" value="1"/>
   </properties>
   <point/>
  </object>
  <object id="7" name="teleporte" x="1286" y="92">
   <properties>
    <property name="id_teleporte" type="int" value="1"/>
   </properties>
   <point/>
  </object>
  <object id="8" name="donacion" x="508" y="336">
   <properties>
    <property name="tipo" value="libros"/>
   </properties>
   <point/>
  </object>
  <object id="10" name="objeto" x="1347.16" y="389.181">
   <properties>
    <property name="objeto" value="taza"/>
   </properties>
   <point/>
  </object>
 </objectgroup>
</map>
