<?xml version="1.0" encoding="UTF-8"?>
<map version="1.10" tiledversion="1.12.2" orientation="orthogonal" renderorder="right-down" width="28" height="10" tilewidth="60" tileheight="60" infinite="0" nextlayerid="7" nextobjectid="11">
 <tileset firstgid="1" source="fondo1.tsx"/>
 <tileset firstgid="51" source="fondo2.tsx"/>
 <tileset firstgid="106" source="fondo3.tsx"/>
 <tileset firstgid="194" source="obstaculos.tsx"/>
 <tileset firstgid="202" source="fondo.tsx"/>
 <tileset firstgid="202" source="obstaculos1.tsx"/>
 <layer id="1" name="fondo" width="28" height="10">
  <data encoding="csv">
63,63,63,63,63,63,63,63,63,63,63,63,63,63,63,63,63,63,2147483710,56,56,56,56,56,56,56,56,56,
63,63,63,63,63,63,63,63,63,63,63,63,63,63,63,63,63,63,2147483726,536870974,2147483699,56,56,56,56,56,56,56,
63,63,63,63,63,63,63,63,63,63,63,63,63,63,63,63,63,63,63,63,2147483726,52,2147483700,52,2147483699,56,56,56,
63,63,63,63,63,63,63,63,63,63,63,63,63,63,63,63,63,63,63,63,63,63,63,63,2147483710,56,56,56,
63,63,63,63,63,63,63,63,63,63,63,63,63,63,63,63,63,63,1073741920,63,63,63,3221225550,1610612798,3221225523,56,56,56,
63,63,63,63,63,63,63,63,63,63,63,63,63,63,63,63,63,63,2147483710,100,101,102,103,56,56,56,56,56,
63,63,63,63,63,63,63,63,63,63,63,63,63,63,63,63,63,63,3221225523,56,56,56,56,56,56,56,56,56,
63,63,63,63,63,63,63,63,63,63,63,63,63,63,63,63,63,3221225523,56,56,56,56,56,56,56,56,56,56,
63,63,63,63,63,63,63,63,63,63,63,63,63,63,63,63,3221225523,56,56,56,56,56,56,56,56,56,56,56,
1073741877,1073741877,1073741877,1073741877,1073741877,1073741877,1073741877,1073741877,1073741877,1073741877,1073741877,1073741877,1073741877,1073741877,1073741877,3221225523,56,56,56,56,56,56,56,56,56,56,56,56
</data>
 </layer>
 <layer id="4" name="fondo_decoracio" width="28" height="10">
  <data encoding="csv">
0,0,0,0,0,0,0,0,0,0,0,0,3221225716,3221225716,3221225716,0,0,0,0,0,0,0,0,0,0,0,0,0,
0,0,0,0,0,0,0,0,0,0,0,0,244,244,2147483892,0,0,0,0,0,0,0,0,0,0,0,0,0,
0,0,0,0,0,0,0,0,0,0,0,0,0,0,0,1073742077,0,0,1073742077,0,0,0,0,0,0,0,0,0,
0,0,0,0,0,3221225716,3221225716,0,0,0,0,0,0,0,0,0,0,0,0,0,0,0,0,0,0,0,0,0,
0,0,0,0,0,244,244,2147483892,0,0,0,0,0,0,0,0,0,0,0,0,0,0,0,0,0,0,0,0,
3221225716,3221225716,3221225716,3221225716,3221225716,3221225716,0,0,0,0,0,0,0,0,0,0,0,0,0,0,0,0,0,0,0,0,0,0,
244,244,244,244,244,0,0,0,0,0,0,0,0,0,0,0,0,0,0,0,0,0,0,0,0,0,0,0,
3221225716,3221225716,3221225716,3221225716,0,0,0,0,0,0,0,0,0,0,0,0,0,0,0,0,0,0,0,0,0,0,0,0,
244,244,244,2147483892,0,0,244,2147483892,0,0,0,0,0,0,0,0,0,0,0,0,0,0,0,0,0,0,0,0,
0,0,0,0,0,0,0,0,0,0,0,0,0,0,0,0,0,0,0,0,0,0,0,0,0,0,0,0
</data>
 </layer>
 <layer id="5" name="fondo_decoracion1" width="28" height="10">
  <data encoding="csv">
0,0,0,0,0,0,0,0,0,0,0,0,0,0,0,0,0,0,0,0,0,0,0,0,0,0,0,0,
0,0,0,0,0,0,0,0,0,0,0,0,0,0,0,0,0,0,0,0,0,0,0,0,0,0,0,0,
0,0,0,0,0,0,0,0,0,0,0,0,0,0,0,0,253,2147483901,0,0,0,0,0,0,0,0,0,0,
0,0,0,0,0,0,0,0,0,0,0,0,0,0,0,0,0,0,0,0,0,0,0,0,0,0,0,0,
0,0,0,0,0,0,0,0,0,0,0,0,0,0,0,0,0,0,0,0,0,0,0,0,0,0,0,0,
0,0,0,0,0,0,0,0,0,0,0,0,0,0,0,0,0,0,0,0,0,0,0,0,0,0,0,0,
0,0,0,0,0,0,0,0,0,0,0,0,0,0,0,0,0,0,0,0,0,0,0,0,0,0,0,0,
0,0,0,0,0,0,0,0,0,0,0,0,0,0,0,0,0,0,0,0,0,0,0,0,0,0,0,0,
0,0,0,0,0,0,0,0,0,0,0,0,0,0,0,0,0,0,0,0,0,0,0,0,0,0,0,0,
0,0,0,0,0,0,0,0,0,0,0,0,0,0,0,0,0,0,0,0,0,0,0,0,0,0,0,0
</data>
 </layer>
 <layer id="6" name="fondo_decoracion2" width="28" height="10">
  <data encoding="csv">
0,0,0,0,0,0,0,0,0,0,0,0,250,251,0,0,0,0,0,0,0,0,0,0,0,0,0,0,
0,0,0,0,0,0,0,0,0,0,0,0,258,259,0,0,0,0,0,0,0,0,0,0,0,0,0,0,
0,0,0,0,0,0,0,0,0,0,0,0,0,0,0,253,2147483901,253,2147483901,0,0,0,0,0,0,0,0,0,
0,0,0,0,0,250,251,0,0,0,0,0,0,0,0,0,0,0,0,0,0,0,0,0,0,0,0,0,
0,0,0,0,0,258,259,0,0,0,0,0,0,0,0,0,0,0,0,0,0,0,0,0,0,0,0,0,
251,250,251,250,251,0,0,0,0,0,0,0,0,0,0,0,0,0,0,0,0,0,0,0,0,0,0,0,
259,258,259,258,259,0,0,0,0,0,0,0,0,0,0,0,0,0,0,0,0,0,0,0,0,0,0,0,
251,250,251,0,0,0,0,0,0,0,0,0,0,0,0,0,0,0,0,0,0,0,0,0,0,0,0,0,
259,258,259,0,0,0,0,0,0,0,0,0,0,0,0,0,0,0,0,0,0,0,0,0,0,0,0,0,
0,0,0,0,0,0,0,0,0,0,0,0,0,0,0,0,0,0,0,0,0,0,0,0,0,0,0,0
</data>
 </layer>
 <layer id="2" name="obstaculos" width="28" height="10">
  <data encoding="csv">
0,0,0,0,0,0,0,0,0,244,0,250,251,250,251,2147483897,0,0,249,0,0,2147483845,0,0,198,0,0,260,
0,0,0,0,0,244,0,0,0,0,0,258,259,258,259,2147483905,0,0,257,0,0,0,0,0,197,0,2147483846,0,
0,0,0,0,0,0,0,0,0,0,0,0,0,0,0,2147483901,0,252,253,0,0,0,0,0,0,0,2147483845,0,
2147483897,0,0,0,250,251,250,251,0,0,0,0,0,244,0,0,0,0,0,0,0,244,0,0,0,0,0,198,
2147483905,0,0,0,258,259,258,259,0,0,0,0,0,0,0,0,0,0,0,0,0,0,0,0,0,0,0,197,
250,251,250,251,250,251,0,0,0,0,0,0,0,0,0,0,0,0,0,0,0,0,0,0,0,0,2147483846,0,
258,259,258,259,258,259,0,0,0,0,0,0,244,0,0,0,0,0,0,0,0,0,0,198,0,0,2147483845,0,
250,251,250,251,0,0,250,251,0,0,2147483892,0,0,0,2147483892,0,0,0,2147483846,0,0,0,0,197,0,0,0,0,
258,259,258,259,0,0,258,259,0,0,0,0,244,0,0,0,0,0,2147483845,198,0,0,0,0,2147483846,0,0,198,
2684354817,2684354809,0,0,0,0,0,0,0,0,0,0,0,0,0,0,0,0,0,197,0,0,0,0,2147483845,0,0,197
</data>
 </layer>
 <objectgroup id="3" name="objetos">
  <object id="1" name="portal" x="1049.67" y="41">
   <point/>
  </object>
  <object id="2" name="teleporte" x="271.01" y="460.333">
   <properties>
    <property name="id_teleporte" type="int" value="1"/>
   </properties>
   <point/>
  </object>
  <object id="3" name="teleporte" x="1110.5" y="341.833">
   <properties>
    <property name="id_teleporte" type="int" value="1"/>
   </properties>
   <point/>
  </object>
  <object id="5" name="puerta_placa" x="983" y="154.334" rotation="90">
   <properties>
    <property name="id_puerta" type="int" value="1"/>
   </properties>
   <point/>
  </object>
  <object id="6" name="placa" x="1108.66" y="277.667">
   <properties>
    <property name="id_puerta" type="int" value="1"/>
   </properties>
   <point/>
  </object>
  <object id="9" name="caja" x="568.67" y="342">
   <point/>
  </object>
  <object id="10" name="caja" x="981.67" y="401.333">
   <point/>
  </object>
  <object id="10" name="donacion" x="335" y="466">
   <properties>
    <property name="tipo" value="juguetes"/>
   </properties>
   <point/>
  </object>
 </objectgroup>
</map>
